X: 398
T: The Laurels of 99
%R: march, reel
Z: 2014 John Chambers <jc:trillian.mit.edu>
B: Preston "Twenty four Country Dances for the Year 1800" p.179 #2
F: http://www.vwml.org/browse/browse-collections-dance-tune-books/browse-prestons1800# 2014-8-10
M: 2/4
L: 1/8
K: A
|:\
cc/A/ ag | fedc | BB/c/ de | dcBA |\
cc/A/ ag | fedc | BB/c/ dB | A2A2 :|
|:\
cc/A/ ce | aedc | dd/B/ ba | gfed |\
cc/A/ ce | aedc | B/c/d/c/ d/B/A/G/ | A2A2 :|
% - - - - - - - - - - - - - - - - - - - - - - - - -
%%begintext align
%% Change sides & back again .| lead down the
%% middle up again and set to your Partner :|
%% Pousette :|.
%%endtext
% - - - - - - - - - - - - - - - - - - - - - - - - -

%%sep 1 1 500
%%sep 1 1 500
